components/2.0/icon/icons/icon-camera-22px.svg

<?xml version="1.0" encoding="UTF-8" standalone="no"?>
<svg width="22px" height="22px" viewBox="0 0 22 22" version="1.1" xmlns="http://www.w3.org/2000/svg" xmlns:xlink="http://www.w3.org/1999/xlink" xmlns:sketch="http://www.bohemiancoding.com/sketch/ns">
    <!-- Generator: Sketch 3.4.4 (17249) - http://www.bohemiancoding.com/sketch -->
    <title>icon-camera-22px</title>
    <desc>Created with Sketch.</desc>
    <defs></defs>
    <g id="22px" stroke="none" stroke-width="1" fill="none" fill-rule="evenodd" sketch:type="MSPage">
        <g id="icon-camera-22px" sketch:type="MSArtboardGroup">
            <path d="M19,19 L3,19 C1.9,19 1,18.1 1,17 L1,13 L21,13 L21,17 C21,18.1 20.1,19 19,19 L19,19 Z" id="Shape" fill="#3D4752" sketch:type="MSShapeGroup"></path>
            <path d="M19,4 L15,4 L15,2 L7,2 L7,4 L3,4 C1.9,4 1,4.9 1,6 L1,13 L21,13 L21,6 C21,4.9 20.1,4 19,4 L19,4 Z" id="Shape" fill="#92979D" sketch:type="MSShapeGroup"></path>
            <circle id="Oval" fill="#D7D9DA" sketch:type="MSShapeGroup" cx="11" cy="11" r="5"></circle>
        </g>
    </g>
</svg>

<svg width="22" height="22" xmlns="http://www.w3.org/2000/svg"><g fill="none" fill-rule="evenodd"><path d="M19 19H3c-1 0-2-1-2-2v-4h20v4c0 1-1 2-2 2z" fill="#3D4752"/><path d="M19 4h-4V2H7v2H3C2 4 1 5 1 6v7h20V6c0-1-1-2-2-2z" fill="#92979D"/><circle fill="#D7D9DA" cx="11" cy="11" r="5"/></g></svg>
